X:76
T:The Bonny Cuckoo
C:Carolan
%%MIDI beat 100 95 80
S:Colin Hume's website,  colinhume.com  - chords can also be printed below the stave.
Q:1/4=120
M:3/4
L:1/8
K:D
%%center to the tune "Si beag, si mhor"
de | "D"f2 fe d2 | "Bm"d2 de d2 | "G"B4 A2 | "D"F4 A2 | "G"BA Bc d2 | "A"e4 de | "D"f4 "A7"e2 | "Bm"d4 f2 |
"G"B4 e2 | "D"A4 d2 | "A7"F4 E2 | "Bm"D4 f2 | "Em"B4 e2 | "A"A4 dc | "D"d4 "G"dc | "D"d4 |]
de | "D"f2 fe d2 | "A"ed ef a2 | "G"b4 a2 | "D"f4 ed | "A"e4 a2 | "D"f4 ed | "Bm"d4 B2 | "G"B4 BA |
"A7"F4 E2 | "Bm"D4 f2 | "G"B4 e2 | "D"A4 a2 | "G"ba gf ed | "A"e4 dc | "G"d4 dc | "D"d4 |]

